X: 35661
T: Sailor's Bonnet, The
R: reel
M: 4/4
K: Dmajor
B|:A2 FA dfef|dfef dB B2|BAFA dfef|dBAF AD D2:|
|:a3 a afef|afef dB B2|b3 b bafa|bfaf feef|
bf ~f2 afef|afef dBBd|A2 FA dfef|dBAF AD D2:|

